X:1
T:Emmanuel, LM
T:Emmanuel, LM
T:Carl Christian Nikolai Balle, 1850
T:Public Domain Courtesy of the Cyber Hymnal™
C:Carl Christian Nikolai Balle, 1850
Z:Public Domain
Z:Courtesy of the Cyber Hymnal™
%%score ( 1 2 ) ( 3 4 )
L:1/8
Q:1/4=135
M:3/4
K:E
V:1 treble 
V:2 treble 
V:3 bass 
V:4 bass 
V:1
 [EG]2 | [EG]4 [EG]2 | E4 [EG]2 | B3 z [Dc] [FB]2 | [EG]4 [EG]2 | [EA]4 [DF]2 | [EG]4 (EF) | %7
 ([EG]3 [FA]) [EG]2 | [DF]4 [DF]2 | ([DF]2 [EG]2) [FA]2 | [EG]4 [EG]2 | ([DF]2 [EG]2) [FA]2 | %12
 [EG]4 [FB]2 | [Ee]4 [EG]2 | (F3 G) [CA]2 | [B,E]4 (DF) | [B,E]4 |] %17
V:2
 x2 | x6 | E4 x2 | F2 D2 x3 | x6 | x6 | x4 E2 | x6 | x6 | x6 | x6 | x6 | x6 | x6 | C4 x2 | x4 B,2 | %16
 x4 |] %17
V:3
 [E,B,]2 | [E,B,]4 [E,B,]2 | [G,B,]4 [E,B,]2 | B,4 [D,B,]2 x | [E,B,]4 [E,B,]2 | [F,A,]4 [B,,B,]2 | %6
 [E,B,]4 [C,^A,]2 | [B,,B,]4 [B,,B,]2 | [B,,B,]4 B,2 | B,4 [D,B,]2 | [E,B,]4 [G,B,]2 | %11
 B,4 [D,B,]2 | [E,B,]4 [D,F,]2 | [C,G,]4 [C,G,]2 | (A,3 ^E,) [A,,F,]2 | [B,,G,]4 [B,,A,]2 | %16
 [E,G,]4 |] %17
V:4
 x2 | x6 | x6 | (D,2 B,,2) x3 | x6 | x6 | x6 | x6 | x4 B,2 | B,4 x2 | x6 | B,4 x2 | x6 | x6 | %14
 A,,4 x2 | x6 | x4 |] %17

